X: 141
T:Corran House
R:jig
M:6/8
L:1/8
K:E
e|A2 A ABc|efa f2 e|c2 e cBA|Bce f2 e|
A2 A ABc|efa f2 e|a2 a fec|B2 A A2:|
|:e|fgf fec|efa f2 e|c2 A ABc|efe e2 c|
fgf fec|efa f2 e|a2 a fec|B2 A A2:|
